symbols/web/storm/materialsymbolsoutlined/storm_wght100gradN25_40px.svg

<svg xmlns="http://www.w3.org/2000/svg" height="40" width="40"><path d="M29.875 34.708q1.083-3.208 1.271-6.416.187-3.209-.188-5.917-.708 3.583-3.791 6.167-3.084 2.583-7.125 2.583-3.5 0-5.855-1.542-2.354-1.541-3.749-4-1.396-2.458-2-5.604-.605-3.146-.605-6.354 0-2.083.313-4.187.312-2.105.937-4.146h1.042Q8.958 9.083 8.833 12q-.125 2.917.25 5.625.667-3.583 3.75-6.167 3.084-2.583 7.209-2.583 3.458 0 5.791 1.521 2.334 1.521 3.75 4 1.417 2.479 2 5.604.584 3.125.584 6.375 0 2.125-.313 4.208-.312 2.084-.937 4.125Zm-9.833-4.583q4.166 0 7.146-2.979 2.979-2.979 2.979-7.146 0-4.208-2.979-7.167-2.98-2.958-7.146-2.958-4.209 0-7.188 2.979T9.875 20q0 4.208 2.979 7.167 2.979 2.958 7.188 2.958Zm0-5.75q1.833 0 3.104-1.271 1.271-1.271 1.271-3.104 0-1.833-1.271-3.104-1.271-1.271-3.104-1.271-1.875 0-3.125 1.271T15.667 20q0 1.833 1.25 3.104 1.25 1.271 3.125 1.271Zm0-.958q-1.459 0-2.438-.979-.979-.98-.979-2.438 0-1.417.979-2.417.979-1 2.438-1 1.375 0 2.396.979 1.02.98 1.02 2.438 0 1.417-1 2.417-1 1-2.416 1Zm0-3.417Z"/></svg>

<svg xmlns="http://www.w3.org/2000/svg" height="40" width="40"><path d="M29.875 34.708Q30.958 31.5 31.146 28.292Q31.333 25.083 30.958 22.375Q30.25 25.958 27.167 28.542Q24.083 31.125 20.042 31.125Q16.542 31.125 14.187 29.583Q11.833 28.042 10.438 25.583Q9.042 23.125 8.438 19.979Q7.833 16.833 7.833 13.625Q7.833 11.542 8.146 9.438Q8.458 7.333 9.083 5.292H10.125Q8.958 9.083 8.833 12Q8.708 14.917 9.083 17.625Q9.75 14.042 12.833 11.458Q15.917 8.875 20.042 8.875Q23.5 8.875 25.833 10.396Q28.167 11.917 29.583 14.396Q31 16.875 31.583 20Q32.167 23.125 32.167 26.375Q32.167 28.5 31.854 30.583Q31.542 32.667 30.917 34.708ZM20.042 30.125Q24.208 30.125 27.188 27.146Q30.167 24.167 30.167 20Q30.167 15.792 27.188 12.833Q24.208 9.875 20.042 9.875Q15.833 9.875 12.854 12.854Q9.875 15.833 9.875 20Q9.875 24.208 12.854 27.167Q15.833 30.125 20.042 30.125ZM20.042 24.375Q21.875 24.375 23.146 23.104Q24.417 21.833 24.417 20Q24.417 18.167 23.146 16.896Q21.875 15.625 20.042 15.625Q18.167 15.625 16.917 16.896Q15.667 18.167 15.667 20Q15.667 21.833 16.917 23.104Q18.167 24.375 20.042 24.375ZM20.042 23.417Q18.583 23.417 17.604 22.438Q16.625 21.458 16.625 20Q16.625 18.583 17.604 17.583Q18.583 16.583 20.042 16.583Q21.417 16.583 22.438 17.562Q23.458 18.542 23.458 20Q23.458 21.417 22.458 22.417Q21.458 23.417 20.042 23.417ZM20.042 20Q20.042 20 20.042 20Q20.042 20 20.042 20Q20.042 20 20.042 20Q20.042 20 20.042 20Q20.042 20 20.042 20Q20.042 20 20.042 20Q20.042 20 20.042 20Q20.042 20 20.042 20Z"/></svg>
